packages/ui/src/assets/agilityRaw.svg

<path d="M4.4844 4.04688C5.31283 4.04688 5.9844 3.3753 5.9844 2.54688C5.9844 1.71845 5.31283 1.04688 4.4844 1.04688C3.65597 1.04688 2.9844 1.71845 2.9844 2.54688C2.9844 3.3753 3.65597 4.04688 4.4844 4.04688Z" fill="#FFE8FF"/>
<path d="M4.3325 7.2925C4.3325 7.2925 4.4844 9.1465 5.9844 11.8135C6.10645 12.0308 6.5 12.6675 6.5 12.6675L3.5 18.5L3.375 27.5H5.0869L6 20L9 17L12 14.5V12.5L9 7" fill="#FFE8FF"/>
<path d="M12 14L15.5 19L20.5835 22L20.0835 23.5L14 21L9.5 17" fill="#FFE8FF"/>
<path d="M9 6.99999C8 4.99999 6.8203 4.88354 5.9844 5.20849C5.73286 5.32298 5.50701 5.48706 5.32038 5.6909C5.13375 5.89474 4.99018 6.13415 4.89827 6.39479C4.80636 6.65543 4.76799 6.93194 4.78547 7.20776C4.80295 7.48358 4.87592 7.75304 5 7.99999" fill="#FFE8FF"/>
<path d="M4.4844 4.04688C5.31283 4.04688 5.9844 3.3753 5.9844 2.54688C5.9844 1.71845 5.31283 1.04688 4.4844 1.04688C3.65597 1.04688 2.9844 1.71845 2.9844 2.54688C2.9844 3.3753 3.65597 4.04688 4.4844 4.04688Z" stroke="#FFE8FF" stroke-miterlimit="10"/>
<path d="M12 14L14.9268 18.1807C15.322 18.7051 15.8079 19.1547 16.3613 19.5083L19.7222 21.4917C19.9447 21.609 20.1241 21.7943 20.234 22.0207C20.344 22.247 20.3788 22.5025 20.3335 22.75C20.2834 22.854 20.2125 22.9466 20.1252 23.0221C20.038 23.0977 19.9361 23.1545 19.8261 23.1892C19.716 23.2239 19.5999 23.2356 19.4851 23.2237C19.3703 23.2118 19.2591 23.1765 19.1585 23.12L14.925 21.38C14.3214 21.1119 13.7584 20.7603 13.2526 20.3356L9.5 17" stroke="#FFE8FF" stroke-linecap="round" stroke-linejoin="round"/>
<path d="M6.42385 11.6797C6.42385 11.6797 6.55385 11.9766 6.7119 12.3397C6.77861 12.5938 6.79091 12.8591 6.748 13.1182C6.70509 13.3774 6.60794 13.6246 6.4629 13.8436L4.0371 17.6561C3.71198 18.2193 3.52335 18.8508 3.48635 19.5L3.38865 26.5C3.37827 26.621 3.39182 26.7428 3.42853 26.8585C3.46525 26.9743 3.5244 27.0816 3.60262 27.1745C3.68084 27.2674 3.77659 27.3439 3.8844 27.3998C3.99221 27.4556 4.10997 27.4897 4.23095 27.5C4.48423 27.475 4.72072 27.362 4.89925 27.1806C5.07777 26.9992 5.18703 26.7609 5.208 26.5073L5.8789 20.9927C5.9884 20.3591 6.27559 19.7697 6.70705 19.2929L8.29295 17.7071C8.68165 17.3184 9.3457 16.712 9.76795 16.3598L11.232 15.14C11.6896 14.7126 11.9647 14.1252 12 13.5C11.9739 12.8473 11.8107 12.2075 11.521 11.6221L9 7" stroke="#FFE8FF" stroke-linecap="round" stroke-linejoin="round"/>
<path d="M9 6.99999C8 4.99999 6.8203 4.88354 5.9844 5.20849C5.61102 5.36363 5.29581 5.63215 5.08329 5.97613C4.87076 6.3201 4.77167 6.72215 4.8 7.12549" stroke="#FFE8FF" stroke-linecap="round" stroke-linejoin="round"/>
<path d="M6.46875 7L5.7593 9.53855C5.67256 9.80815 5.50542 10.0448 5.28032 10.2166C5.05522 10.3885 4.78293 10.4874 4.5 10.5H1" stroke="#FFE8FF" stroke-linecap="round" stroke-linejoin="round"/>

<path d="M4.484 4.047a1.5 1.5 0 1 0 0-3 1.5 1.5 0 0 0 0 3Z" fill="#FFE8FF"/><path d="M4.332 7.293s.152 1.853 1.652 4.52c.122.218.516.854.516.854l-3 5.833-.125 9h1.712L6 20l3-3 3-2.5v-2L9 7" fill="#FFE8FF"/><path d="m12 14 3.5 5 5.084 3-.5 1.5L14 21l-4.5-4" fill="#FFE8FF"/><path d="M9 7C8 5 6.82 4.884 5.984 5.208A2.054 2.054 0 0 0 5 8" fill="#FFE8FF"/><path d="M4.484 4.047a1.5 1.5 0 1 0 0-3 1.5 1.5 0 0 0 0 3Z" stroke="#FFE8FF" stroke-miterlimit="10"/><path d="m12 14 2.927 4.18c.395.525.88.975 1.434 1.328l3.361 1.984a1.181 1.181 0 0 1 .611 1.258.844.844 0 0 1-1.174.37l-4.234-1.74a7.053 7.053 0 0 1-1.672-1.044L9.5 17" stroke="#FFE8FF" stroke-linecap="round" stroke-linejoin="round"/><path d="m6.424 11.68.288.66a1.866 1.866 0 0 1-.25 1.504l-2.425 3.812a4.162 4.162 0 0 0-.55 1.844l-.098 7a.924.924 0 0 0 .842 1 1.088 1.088 0 0 0 .977-.993l.67-5.514c.11-.634.398-1.223.829-1.7l1.586-1.586a26.842 26.842 0 0 1 1.475-1.347l1.464-1.22A2.432 2.432 0 0 0 12 13.5a4.653 4.653 0 0 0-.479-1.878L9 7" stroke="#FFE8FF" stroke-linecap="round" stroke-linejoin="round"/><path d="M9 7C8 5 6.82 4.884 5.984 5.208A1.93 1.93 0 0 0 4.8 7.125" stroke="#FFE8FF" stroke-linecap="round" stroke-linejoin="round"/><path d="m6.469 7-.71 2.539A1.388 1.388 0 0 1 4.5 10.5H1" stroke="#FFE8FF" stroke-linecap="round" stroke-linejoin="round"/>
